naStart/img/connect_tv-icon.svg

<svg width="34" height="31" viewBox="0 0 34 31" fill="none" xmlns="http://www.w3.org/2000/svg">
<g clip-path="url(#clip0)">
<path d="M22.7887 29.0296V25.7456H11.2287V29.0296H8.23975V31H25.7604V29.0296H22.7887Z" fill="#8E8E8E"/>
<path d="M0 0V23.7753H1.99219H32.0078H34V0H0ZM15.2077 9.36916H12.8536V16.3469H10.8614V9.36916H8.5073V7.39878H15.2077V9.36916V9.36916ZM21.3489 16.5282L17.2052 8.10943L18.9962 7.24706L21.3489 12.0265L23.7017 7.24706L25.4927 8.10943L21.3489 16.5282Z" fill="#8E8E8E"/>
</g>
<defs>
<clipPath id="clip0">
<rect width="34" height="31" fill="white"/>
</clipPath>
</defs>
</svg>

<svg width="34" height="31" fill="none" xmlns="http://www.w3.org/2000/svg"><g clip-path="url(#clip0)" fill="#8E8E8E"><path d="M22.789 29.03v-3.284h-11.56v3.284h-2.99V31H25.76v-1.97h-2.97zM0 0v23.775h34V0H0zm15.208 9.37h-2.354v6.977H10.86V9.369H8.507V7.4h6.7v1.97zm6.14 7.158L17.206 8.11l1.791-.862 2.353 4.78 2.353-4.78 1.79.862-4.143 8.42z"/></g><defs><clipPath id="clip0"><path fill="#fff" d="M0 0h34v31H0z"/></clipPath></defs></svg>
